app/assets/images/sidebar/settings-ic.svg

<?xml version="1.0" encoding="UTF-8"?>
<svg width="42px" height="44px" viewBox="0 0 42 44" version="1.1" xmlns="http://www.w3.org/2000/svg" xmlns:xlink="http://www.w3.org/1999/xlink">
    <!-- Generator: sketchtool 40.3 (33839) - http://www.bohemiancoding.com/sketch -->
    <title>5E7DEC8D-B664-47DC-95A6-976150A79D9B</title>
    <desc>Created with sketchtool.</desc>
    <defs></defs>
    <g id="Symbols" stroke="none" stroke-width="1" fill="none" fill-rule="evenodd">
        <g id="wallets-menu" transform="translate(-63.000000, -902.000000)">
            <g id="menu">
                <g id="main-menu" transform="translate(40.000000, 208.000000)">
                    <g id="settings-ic" transform="translate(0.000000, 672.000000)">
                        <circle id="Oval" cx="44" cy="44" r="44"></circle>
                        <path d="M55,46 L33,46 C27.479,46 23,50.477 23,56 C23,61.521 27.479,66 33,66 L55,66 C60.523,66 65,61.521 65,56 C65,50.476 60.523,46 55,46 L55,46 Z M55,64 L33,64 C28.582,64 25,60.418 25,56 C25,51.582 28.582,48 33,48 L55,48 C59.418,48 63,51.582 63,56 C63,60.418 59.418,64 55,64 L55,64 Z M55,22 L33,22 C27.479,22 23,26.477 23,32 C23,37.521 27.479,42 33,42 L55,42 C60.523,42 65,37.521 65,32 C65,26.476 60.523,22 55,22 L55,22 Z M55,40 L33,40 C28.582,40 25,36.418 25,32 C25,27.582 28.582,24 33,24 L55,24 C59.418,24 63,27.582 63,32 C63,36.418 59.418,40 55,40 L55,40 Z M55,50 C51.688,50 49,52.686 49,56 C49,59.312 51.688,62 55,62 C58.314,62 61,59.312 61,56 C61,52.685 58.314,50 55,50 L55,50 Z M55,60 C52.791,60 51,58.209 51,56 C51,53.791 52.791,52 55,52 C57.209,52 59,53.791 59,56 C59,58.209 57.209,60 55,60 L55,60 Z M33,26 C29.688,26 27,28.686 27,32 C27,35.312 29.688,38 33,38 C36.314,38 39,35.312 39,32 C39,28.685 36.314,26 33,26 L33,26 Z M33,36 C30.791,36 29,34.209 29,32 C29,29.791 30.791,28 33,28 C35.209,28 37,29.791 37,32 C37,34.209 35.209,36 33,36 L33,36 Z" fill="#FAFBFC"></path>
                    </g>
                </g>
            </g>
        </g>
    </g>
</svg>

<svg xmlns="http://www.w3.org/2000/svg" width="42" height="44" viewBox="0 0 42 44">
    <g fill="none" fill-rule="evenodd" transform="translate(-23 -22)">
        <circle cx="44" cy="44" r="44"/>
        <path fill="#5E6066" d="M55 46H33c-5.521 0-10 4.477-10 10 0 5.521 4.479 10 10 10h22c5.523 0 10-4.479 10-10 0-5.524-4.477-10-10-10zm0 18H33a8 8 0 0 1 0-16h22a8 8 0 0 1 0 16zm0-42H33c-5.521 0-10 4.477-10 10 0 5.521 4.479 10 10 10h22c5.523 0 10-4.479 10-10 0-5.524-4.477-10-10-10zm0 18H33a8 8 0 0 1 0-16h22a8 8 0 0 1 0 16zm0 10a6 6 0 0 0 0 12 6 6 0 0 0 0-12zm0 10a4 4 0 1 1 0-8 4 4 0 0 1 0 8zM33 26a6 6 0 0 0 0 12 6 6 0 0 0 0-12zm0 10a4 4 0 1 1 0-8 4 4 0 0 1 0 8z"/>
    </g>
</svg>
